X:4947
T:Paddy McFadden
O:england
B:Roche Collection of Traditional Irish Music
M:6/8
L:1/8
K:EDor
|:F/A/|BAB EFE|BAF d2B|AFA DED|FDF AFA|
BAB EFE|BAF d2B|edB AFD|EFE E2:|
|:F/A/|Bef efd|BAF d2B|edB ~A3|edB ~A3|
Bef efd|BAF d2B|edB AFD|EFE E2:|


